!!!COM:	Martini, Johannes
!!!CDT:	~1440///-~1497//
!!!OTL:	Miserere mei deus
!!!AGN:	Motet
!!!SCT:	Mar2075
!!!SCA:	Mar2075
!!!voices:	3
**kern	**kern	**kern
*staff3	*staff2	*staff1
*Ivox	*Ivox	*Ivox
*I"Bassus	*I"Tenor	*I"Superius
*I'B	*I'T	*I'S
*>[A,B,C,D,E,F,G,H,I,J,K,L,M,N,O,P,Q,R,S,T]	*>[A,B,C,D,E,F,G,H,I,J,K,L,M,N,O,P,Q,R,S,T]	*>[A,B,C,D,E,F,G,H,I,J,K,L,M,N,O,P,Q,R,S,T]
*>A	*>A	*>A
*clefGv2	*clefGv2	*clefG2
*k[]	*k[]	*k[]
*M2/1	*M2/1	*M2/1
*met(C)	*met(C)	*met(C)
=1-	=1-	=1-
!!LO:TX:Z=8:t=Choir 1
!!section: Secundum magnam
!!!OMD: Secundum magnam
1c	1c	1cc
1A	1e	1cc
=2	=2	=2
2A/	2e\	2cc\
2A/	2e\	2cc\
1A	1c	1cc
=3	=3	=3
2G/	2d\	2b\
2A/	2c\	2a/
2G/	2d\	2b\
[2C/	2e\	[2cc\
=4	=4	=4
2C/]	1c	2cc\]
2C/	.	4b\
.	.	4a/
2G/	2B\	2g/
[2F/	2c\	[2a/
=5	=5	=5
2F/]	2d\	2a/]
2G/	2B\	1g
1D	1A	.
.	.	2f#i/
=6	=6	=6
0dl	0Gl	0gl
=7||	=7||	=7||
*>B	*>B	*>B
!!section: Et secundum multitudinem
!!!OMD: Et secundum multitudinem
!!LO:TX:Z=8:t=Choir 2
1c	1c	1cc
2A/	2e\	2cc\
2A/	2e\	2cc\
=8	=8	=8
1A	1e	1cc
2F/	2f\	2cc\
2F/	2f\	2cc\
=9	=9	=9
2F/	2f\	2cc\
2F/	2f\	2cc\
1A	1e	1cc
=10	=10	=10
1A	1f	1cc
2G/	2g\	2b\
2G/	2g\	2b\
=11	=11	=11
2G/	2g\	2b\
2G/	2g\	2b\
1A	2.c\	1cc
.	4d\	.
=12	=12	=12
2c\	2e\	2cc\
1B-	1f	1dd
2c\	2e\	[2cc\
=13	=13	=13
1G	1d	2cc\]
.	.	2b\
1A	1c	1cc
=14	=14	=14
1r	1r	1r
1A	1e	1cc
=15	=15	=15
1c	1e	1cc
1G	1d	1b
=16	=16	=16
2A/	2c\	2a/
2A/	2c\	1cc
1F	1c	.
.	.	4b\
.	.	4a/
=17	=17	=17
2G/	2B\	2g/
1F	2c\	1a
.	2d\	.
2G/	2B\	[2g/
=18	=18	=18
1D	1A	2g/]
.	.	2f#i/
1dl	1Gl	1gl
=19||	=19||	=19||
*>C	*>C	*>C
!!section: Amplius lava
!!!OMD: Amplius lava
!!LO:TX:Z=8:t=Choir 1
1c	1c	1cc
2A/	2e\	2cc\
2A/	2e\	2cc\
=20	=20	=20
2A/	2e\	2cc\
2A/	2e\	2cc\
1A	1f	1cc
=21	=21	=21
1G	1g	1b
2r	1f	1a
2A/	.	.
=22	=22	=22
2c\	2e\	2g/
2F/	2f\	2a/
2G/	2d\	2b\
[2C/	[2e\	[2cc\
=23	=23	=23
2C/]	2e\]	2cc\]
2C/	4d\	4b\
.	4c\	4a/
1G	1d	1b
=24	=24	=24
1A	1c	1cc
1r	1r	1r
=25	=25	=25
1A	1e	1cc
1A	1e	1cc
=26	=26	=26
2A/	2e\	2cc\
2A/	2e\	2cc\
2A/	2e\	2cc\
2A/	2e\	2cc\
=27	=27	=27
1A	1c	1cc
[1G	2.d\	[1b
.	4c\	.
=28	=28	=28
2G/]	2d\	2b\]
2C/	2e\	1cc
1F	1c	.
.	.	4b\
.	.	4a/
=29	=29	=29
2G/	2B\	2g/
1F	2c\	1a
.	2d\	.
2G/	2B\	[2g/
=30	=30	=30
1D	1A	2g/]
.	.	2f#i/
1dl	1Gl	1gl
=31||	=31||	=31||
*>D	*>D	*>D
!!section: Quoniam iniquitatem
!!!OMD: Quoniam iniquitatem
!!LO:TX:Z=8:t=Choir 2
2c\	2c\	2cc\
2c\	2c\	2cc\
2A/	2e\	2cc\
2A/	2e\	2cc\
=32	=32	=32
2F/	2f\	2cc\
2F/	2f\	2cc\
2F/	2f\	2cc\
2F/	2f\	2cc\
=33	=33	=33
1F	1f	1cc
1G	1d	1b
=34	=34	=34
2A/	2c\	2cc\
1B-	1f	1dd
2c\	2e\	[2cc\
=35	=35	=35
1G	1d	2cc\]
.	.	2b\
1A	1c	1cc
=36	=36	=36
1r	1r	1r
1A	1e	1cc
=37	=37	=37
2A/	2e\	2cc\
2A/	2e\	2cc\
2A/	2e\	2cc\
2A/	2e\	2cc\
=38	=38	=38
1c	1e	1cc
2G/	1d	1b
2D/	.	.
=39	=39	=39
2F/	2c\	2a/
2D/	2d\	2b\
1C	1e	1cc
=40	=40	=40
2D/	1d	2b\
1F	.	2.a/
.	2c\	.
.	.	4g/
2G/	2B\	[2g/
=41	=41	=41
1D	1A	2g/]
.	.	2f#i/
1dl	1Gl	1gl
=42||	=42||	=42||
*>E	*>E	*>E
!!LO:TX:Z=8:t=Choir 1
!!section: Tibi soli
!!!OMD: Tibi soli
2c\	2e\	2cc\
2c\	2e\	2cc\
1A	2e\	1cc
.	2e\	.
=43	=43	=43
1F	1f	1cc
2F/	1f	2cc\
2F/	.	2cc\
=44	=44	=44
1F	1f	1cc
1G	2.d\	1b
.	4e\	.
=45	=45	=45
2D/	1f	1a
2F/	.	.
2C/	2e\	2g/
2F/	2f\	2a/
=46	=46	=46
2E/	2g\	2b\
2C/	2e\	1cc
1G	1d	.
.	.	2b\
=47	=47	=47
1C	1c	1cc
1r	1r	1r
=48	=48	=48
1c	1e	1cc
2A/	2e\	2cc\
2A/	2e\	2cc\
=49	=49	=49
2A/	2e\	2cc\
2A/	2e\	2cc\
1A	1c	1cc
=50	=50	=50
1G	1d	1b
2C/	2e\	2cc\
2G/	2d\	2b\
=51	=51	=51
2A/	2c\	2a/
1G	1d	1b
2A/	2c\	[2a/
=52	=52	=52
1E	1B	2a/]
.	.	2g#i/
1c	1A	1a
=53	=53	=53
1d	1G	2r
.	.	2b\
1c	1A	1cc
=54	=54	=54
1A	1c	1cc
1G	2.d\	2.b\
.	4c\	4a/
=55	=55	=55
2G/	2d\	2b\
1C	1e	1cc
2C/	4d\	4b\
.	4c\	4a/
=56	=56	=56
2G/	2B\	2g/
1F	1c	1a
2G/	2B\	[2g/
=57	=57	=57
1D	1A	2g/]
.	.	2f#i/
1Gl	1Gl	1gl
=58||	=58||	=58||
*>F	*>F	*>F
!!section: Ecce enim in
!!!OMD: Ecce enim in
!!LO:TX:Z=8:t=Choir 2
1c	1c	1cc
2A/	2e\	2cc\
2A/	2e\	2cc\
=59	=59	=59
1A	1e	1cc
1A	1c	1cc
=60	=60	=60
1G	1d	1b
2G/	2d\	2b\
2G/	2d\	2b\
=61	=61	=61
2G/	2d\	2b\
2G/	2d\	2b\
1G	1d	1b
=62	=62	=62
2A/	1c	1a
2F/	.	.
2G/	2.B\	2.g/
2r	.	.
.	4c\	4a/
=63	=63	=63
2G/	2d\	2b\
2A/	2c\	1cc
1G	1d	.
.	.	2b\
=64	=64	=64
1C	1c	1cc
1r	1r	1r
=65	=65	=65
2C/	2e\	2cc\
2C/	2e\	2cc\
2G/	2d\	2b\
2G/	2d\	2b\
=66	=66	=66
1A	1c	1cc
1G	1d	1b
=67	=67	=67
2A/	2c\	2a/
2G/	2d\	2b\
1c	1e	1cc
=68	=68	=68
2G/	1d	2b\
1F	.	1a
.	2c\	.
2G/	2B\	[2g/
=69	=69	=69
1D	1A	2g/]
.	.	2f#i/
1dl	1Gl	1gl
=70||	=70||	=70||
*>G	*>G	*>G
!!LO:TX:Z=8:t=Choir 1
!!section: Ecce enim veritatem
!!!OMD: Ecce enim veritatem
1c	1e	1cc
2A/	2e\	2cc\
2A/	2e\	2cc\
=71	=71	=71
1A	1e	1cc
2A/	2e\	2cc\
2A/	2e\	2cc\
=72	=72	=72
1A	1f	1cc
1G	1g	1b
=73	=73	=73
2D/	1f	1a
2F/	.	.
2C/	2e\	2g/
2F/	2f\	2a/
=74	=74	=74
2E/	2g\	2b\
1.C	1e	1cc
.	4d\	4b\
.	4c\	4a/
=75	=75	=75
1G	1d	1b
1C	1c	1cc
=76	=76	=76
1r	1r	1r
2c\	2e\	2cc\
2c\	2e\	2cc\
=77	=77	=77
1c	1e	1cc
2G/	2d\	2b\
2A/	2c\	2a/
=78	=78	=78
1G	1d	1b
1A	1c	1cc
=79	=79	=79
2A/	2e\	2cc\
2A/	2e\	2cc\
2A/	2e\	2cc\
2A/	2e\	2cc\
=80	=80	=80
1A	1e	1cc
2r	2d\	2b\
2A/	2c\	2a/
=81	=81	=81
2G/	2d\	2b\
1C	1e	1cc
2G/	4d\	4b\
.	4c\	4a/
=82	=82	=82
2G/	2B\	2g/
1F	2c\	1a
.	2d\	.
2G/	2B\	[2g/
=83	=83	=83
1D	1A	2g/]
.	.	2f#i/
1dl	1Gl	1gl
=84||	=84||	=84||
*>H	*>H	*>H
!!section: Asperges me
!!!OMD: Asperges me
!!LO:TX:Z=8:t=Choir 2
1c	1e	1cc
1A	1e	1cc
=85	=85	=85
2F/	2f\	2cc\
2F/	2f\	2cc\
2G/	2d\	2b\
2G/	2d\	2b\
=86	=86	=86
1C	1e	1cc
2c\	2e\	2cc\
2c\	2e\	2cc\
=87	=87	=87
1A	1f	1cc
1G	1g	1b
=88	=88	=88
2r	1f	1a
2A/	.	.
1c	2e\	2.g/
.	[2g\	.
.	.	4a/
=89	=89	=89
2G/	4g\]	2b\
.	4f\	.
2c\	2e\	1cc
1G	1d	.
.	.	2b\
=90	=90	=90
1A	1c	1cc
1r	1r	1r
=91	=91	=91
1A	1e	1cc
2A/	2e\	2cc\
2A/	2e\	2cc\
=92	=92	=92
1A	1c	1cc
1G	2d\	1b
.	2e\	.
=93	=93	=93
2F/	1f	2a/
2G/	.	2b\
2A/	2e\	1cc
2A/	2c\	.
=94	=94	=94
2G/	2d\	2b\
2A/	1c	1a
2F/	.	.
2G/	2B\	[2g/
=95	=95	=95
1D	1A	2g/]
.	.	2f#i/
1dl	1Gl	1gl
=96||	=96||	=96||
*>I	*>I	*>I
!!section: Auditui meo
!!!OMD: Auditui meo
!!LO:TX:Z=8:t=Choir 1
1c	1e	1cc
2A/	2e\	2cc\
2A/	2e\	2cc\
=97	=97	=97
2A/	2e\	2cc\
2A/	2e\	2cc\
1F	1f	1cc
=98	=98	=98
2A/	2e\	2cc\
2A/	2e\	2cc\
2A/	2e\	2cc\
2A/	2e\	2cc\
=99	=99	=99
1A	1e	1cc
1G	1g	1b
=100	=100	=100
2c\	2e\	2cc\
2A/	2f\	1dd
2G/	2g\	.
2c\	2e\	[2cc\
=101	=101	=101
1G	1d	2cc\]
.	.	2b\
1A	1c	1cc
=102	=102	=102
1r	1r	1r
2A/	2e\	2cc\
2c\	2e\	2cc\
=103	=103	=103
2G/	2d\	2b\
2G/	2d\	2b\
1A	1c	1cc
=104	=104	=104
2G/	2d\	2b\
2A/	2c\	2a/
2G/	2d\	2b\
[2C/	[2e\	[2cc\
=105	=105	=105
2C/]	2e\]	2cc\]
1G	2d\	4b\
.	.	4a/
.	2B\	2g/
[2F/	[2c\	[2a/
=106	=106	=106
2F/]	2c\]	2a/]
2G/	2B\	1g
1D	1A	.
.	.	2f#i/
=107	=107	=107
0dl	0Gl	0gl
=108||	=108||	=108||
*>J	*>J	*>J
!!section: Averte faciem
!!!OMD: Averte faciem
!!LO:TX:Z=8:t=Choir 2
2c\	2c\	2cc\
2c\	2c\	2cc\
1A	1e	1cc
=109	=109	=109
1A	1e	1cc
2F/	2f\	2cc\
2F/	2f\	2cc\
=110	=110	=110
1F	1f	1cc
1A	1e	1cc
=111	=111	=111
1G	1g	1b
2c\	2e\	2cc\
[2B-\	[2f\	[2dd\
=112	=112	=112
2B-\]	2f\]	2dd\]
2c\	2e\	1cc
1G	1d	.
.	.	2b\
=113	=113	=113
1C	1c	1cc
1r	1r	1r
=114	=114	=114
1c	1e	1cc
1A	1e	1cc
=115	=115	=115
1F	1f	1cc
2F/	2f\	2cc\
2F/	2f\	2cc\
=116	=116	=116
2F/	2f\	2cc\
2F/	2f\	2cc\
1C	1e	1cc
=117	=117	=117
1G	1d	1b
2A/	2.c\	2.a/
[2F/	.	.
.	4B\	4g/
=118	=118	=118
2F/]	2c\	2a/
2D/	2d\	1b
1E	1G	.
.	.	[2g/
=119	=119	=119
1D	1A	2g/]
.	.	2f#i/
1dl	1Gl	1gl
=120||	=120||	=120||
*>K	*>K	*>K
!!LO:TX:Z=8:t=Choir 1
!!section: Cor mundum
!!!OMD: Cor mundum
1c	1e	1cc
1A	1e	1cc
=121	=121	=121
1A	1f	1cc
1G	1g	1b
=122	=122	=122
2A/	1f	1a
2F/	.	.
2c\	2e\	2g/
2A/	2f\	2a/
=123	=123	=123
2G/	2g\	2b\
2A/	1e	1cc
1c	.	.
.	4d\	4b\
.	4c\	4a/
=124	=124	=124
1G	1d	1b
1A	1c	1cc
=125	=125	=125
1r	1r	1r
1A	1e	1cc
=126	=126	=126
2A/	2e\	2cc\
2c\	2e\	2cc\
2G/	2d\	2b\
2G/	2d\	2b\
=127	=127	=127
1G	1d	1b
2c\	2e\	2cc\
2c\	2e\	2cc\
=128	=128	=128
1A	1e	1cc
2r	2d\	2b\
2A/	2c\	2a/
=129	=129	=129
2G/	2d\	2b\
2c\	2e\	1cc
2A/	2c\	.
[2G/	2d\	4b\
.	.	4a/
=130	=130	=130
2G/]	2B\	2g/
2F/	2c\	1a
2G/	2B\	.
2E/	2G/	[2g/
=131	=131	=131
1D	1A	2g/]
.	.	2f#i/
1dl	1Gl	1gl
=132||	=132||	=132||
*>L	*>L	*>L
!!section: Ne projicias
!!!OMD: Ne projicias
!!LO:TX:Z=8:t=Choir 2
1c	1e	1cc
2A/	2e\	2cc\
2A/	2e\	2cc\
=133	=133	=133
2A/	2e\	2cc\
2A/	2e\	2cc\
1F	1f	1cc
=134	=134	=134
1G	1d	1b
2c\	2e\	2cc\
2B\	2f\	[2dd\
=135	=135	=135
2G/	2g\	2dd\]
2c\	2e\	1cc
1G	1d	.
.	.	2b\
=136	=136	=136
1C	1c	1cc
1r	1r	1r
=137	=137	=137
1c	1e	1cc
2c\	2e\	2cc\
2c\	2e\	2cc\
=138	=138	=138
2A/	1e	1cc
2c\	.	.
2G/	2d\	2b\
2A/	2c\	2a/
=139	=139	=139
1G	1d	1b
1C	1e	1cc
=140	=140	=140
1G	1d	1b
2A/	2c\	2.a/
2G/	2d\	.
.	.	4b\
=141	=141	=141
1c	1e	1cc
2G/	1d	2b\
2D/	.	[2a/
=142	=142	=142
2F/	2c\	2a/]
2G/	2B\	1g
1D	1A	.
.	.	2f#i/
=143	=143	=143
0dl	0Gl	0gl
=144||	=144||	=144||
*>M	*>M	*>M
!!LO:TX:Z=8:t=Choir 1
!!section: Redde michi
!!!OMD: Redde michi
1c	1c	1cc
2A/	2e\	2cc\
2A/	2e\	2cc\
=145	=145	=145
1A	1e	1cc
1A	1e	1cc
=146	=146	=146
2A/	2e\	2cc\
2A/	2e\	2cc\
1A	1e	1cc
=147	=147	=147
2D/	2d\	2b\
2F/	2c\	2a/
2G/	2B\	2g/
2A/	2c\	[2cc\
=148	=148	=148
1G	1d	2cc\]
.	.	2b\
1C	1c	1cc
=149	=149	=149
1r	1r	1r
1c	1e	1cc
=150	=150	=150
2A/	2e\	2cc\
2A/	2e\	2cc\
1A	1e	1cc
=151	=151	=151
2r	2d\	2b\
2A/	2c\	2a/
2G/	2d\	2b\
2C/	2e\	[2cc\
=152	=152	=152
1F	1c	2cc\]
.	.	4b\
.	.	4a/
2G/	2B\	2g/
[2F/	2c\	[2a/
=153	=153	=153
2F/]	2d\	2a/]
2G/	2B\	1g
1D	1A	.
.	.	2f#i/
=154	=154	=154
0dl	0Gl	0gl
=155||	=155||	=155||
*>N	*>N	*>N
!!section: Docebo iniquos
!!!OMD: Docebo iniquos
!!LO:TX:Z=8:t=Choir 2
1c	1e	1cc
1A	1e	1cc
=156	=156	=156
1F	1f	1cc
2A/	2e\	2cc\
2A/	2e\	2cc\
=157	=157	=157
1A	1e	1cc
1G	1g	1b
=158	=158	=158
2D/	1f	1a
2F/	.	.
1C	1e	2.g/
.	.	4a/
=159	=159	=159
2G/	2d\	2b\
2A/	2c\	1cc
1G	1d	.
.	.	2b\
=160	=160	=160
1A	1c	1cc
1r	1r	1r
=161	=161	=161
1A	1e	1cc
2A/	2e\	2cc\
2A/	2e\	2cc\
=162	=162	=162
1F	1f	1cc
1G	1d	1b
=163	=163	=163
1A	2c\	2a/
.	2e\	2cc\
2D/	2d\	2b\
[2F/	[2c\	[2a/
=164	=164	=164
4F/]	4c\]	2a/]
4G/	4B\	.
2E/	2G/	1g
1D	1A	.
.	.	2f#i/
=165	=165	=165
0dl	0Gl	0gl
=166||	=166||	=166||
*>O	*>O	*>O
!!section: Libera me
!!!OMD: Libera me
!!LO:TX:Z=8:t=Choir 1
1c	1c	1cc
2A/	2e\	2cc\
2A/	2e\	2cc\
=167	=167	=167
1A	1e	1cc
2A/	2e\	2cc\
2A/	2e\	2cc\
=168	=168	=168
2A/	2e\	2cc\
2A/	2e\	2cc\
1A	1c	1cc
=169	=169	=169
1c	1e	1cc
1G	1d	1b
=170	=170	=170
2A/	1c	1a
2F/	.	.
2G/	2B\	2g/
2F/	2c\	2a/
=171	=171	=171
2D/	2d\	2b\
2C/	1e	1cc
1c	.	.
.	4d\	4b\
.	4c\	4a/
=172	=172	=172
1G	1d	1b
1A	1c	1cc
=173	=173	=173
1r	1r	1r
2A/	2e\	2cc\
2A/	2e\	2cc\
=174	=174	=174
2A/	2e\	2cc\
2A/	2e\	2cc\
1A	1e	1cc
=175	=175	=175
2A/	2e\	2cc\
2A/	2e\	2cc\
1c	1e	1cc
=176	=176	=176
2G/	2d\	2b\
2A/	2c\	2a/
2G/	2d\	2b\
[2c\	[2e\	[2cc\
=177	=177	=177
2c\]	2e\]	2cc\]
1G	4d\	4b\
.	4c\	4a/
.	2B\	2g/
[2F/	[2c\	[2a/
=178	=178	=178
4F/]	4c\]	2a/]
4G/	4B\	.
2E/	2G/	1g
1D	1A	.
.	.	2f#i/
=179	=179	=179
0dl	0Gl	0gl
=180||	=180||	=180||
*>P	*>P	*>P
!!LO:TX:Z=8:t=Choir 2
!!section: Domine, labia
!!!OMD: Domine, labia
2c\	2c\	2cc\
2c\	2c\	2cc\
1A	1e	1cc
=181	=181	=181
2F/	2f\	2cc\
2F/	2f\	2cc\
1F	1f	2cc\
.	.	2cc\
=182	=182	=182
1A	2e\	1cc
.	2f\	.
1G	1g	1b
=183	=183	=183
2c\	2e\	2cc\
1B-	1f	1dd
2c\	2e\	[2cc\
=184	=184	=184
1G	1d	2cc\]
.	.	2b\
1C	1c	1cc
=185	=185	=185
1r	1r	1r
1c	1e	1cc
=186	=186	=186
2A/	2e\	2cc\
2A/	2e\	2cc\
1A	1f	1cc
=187	=187	=187
2G/	2g\	2b\
2G/	2g\	2b\
2G/	2d\	2b\
2G/	2d\	2b\
=188	=188	=188
1G	1d	1b
1C	1e	1cc
=189	=189	=189
2D/	1d	2b\
1F	.	1a
.	2c\	.
2G/	2B\	[2g/
=190	=190	=190
1D	1A	2g/]
.	.	2f#i/
1dl	1Gl	1gl
=191||	=191||	=191||
*>Q	*>Q	*>Q
!!LO:TX:Z=8:t=Choir 1
!!section: Quoniam si
!!!OMD: Quoniam si
2c\	2c\	2cc\
2c\	2c\	2cc\
1A	1e	1cc
=192	=192	=192
2F/	2f\	2cc\
2F/	2f\	2cc\
2F/	2f\	2cc\
2F/	2f\	2cc\
=193	=193	=193
1F	1f	1cc
2A/	2e\	2cc\
2A/	2e\	2cc\
=194	=194	=194
2A/	2e\	2cc\
2A/	2e\	2cc\
1A	1f	1cc
=195	=195	=195
1G	1g	1b
2c\	2e\	2cc\
[2B-\	[2f\	[2dd\
=196	=196	=196
2B-\]	2f\]	2dd\]
2c\	2e\	1cc
1G	1d	.
.	.	2b\
=197	=197	=197
1A	1c	1cc
1r	1r	1r
=198	=198	=198
2A/	2e\	2cc\
2A/	2e\	2cc\
1c	1e	1cc
=199	=199	=199
2G/	2d\	2b\
2G/	2d\	2b\
1G	1d	1b
=200	=200	=200
1A	1c	1cc
2G/	2d\	2b\
2A/	2c\	2a/
=201	=201	=201
2G/	2d\	2b\
1C	1e	1cc
[2G/	4d\	4b\
.	4c\	4a/
=202	=202	=202
2G/]	2B\	2g/
1F	2.c\	1a
.	4B\	.
2E/	2G/	[2g/
=203	=203	=203
1D	1A	4g/]
.	.	4e/
.	.	2f#i/
1dl	1Gl	1gl
=204||	=204||	=204||
*>R	*>R	*>R
!!LO:TX:Z=8:t=Choir 2
!!section: Sacrificium Deo
!!!OMD: Sacrificium Deo
2c\	2c\	2cc\
2c\	2c\	2cc\
2A/	2e\	2cc\
2A/	2e\	2cc\
=205	=205	=205
1F	1f	1cc
2G/	2d\	2b\
2G/	2d\	2b\
=206	=206	=206
2A/	2c\	2a/
2G/	2d\	2b\
1C	1e	1cc
=207	=207	=207
2G/	2d\	2b\
2F/	2f\	2a/
2c\	2e\	2g/
2A/	2c\	[2cc\
=208	=208	=208
1G	1d	2cc\]
.	.	2b\
1A	1c	1cc
=209	=209	=209
1r	1r	1r
1A	1e	1cc
=210	=210	=210
2A/	2e\	2cc\
2A/	2e\	2cc\
1c	1e	1cc
=211	=211	=211
1G	1d	1b
2G/	2d\	2b\
2G/	2d\	2b\
=212	=212	=212
2G/	2d\	2b\
2G/	2d\	2b\
1C	1e	1cc
=213	=213	=213
1G	2d\	1b
.	2e\	.
1F	1f	2a/
.	.	2b\
=214	=214	=214
2A/	1e	1cc
2c\	.	.
2G/	2d\	2b\
2A/	2c\	[2a/
=215	=215	=215
2F/	2d\	2a/]
2G/	2B\	1g
1D	1A	.
.	.	2f#i/
=216	=216	=216
0Gl	0Gl	0gl
=217||	=217||	=217||
*>S	*>S	*>S
!!section: Benigne fac
!!!OMD: Benigne fac
!!LO:TX:Z=8:t=Choir 1
1c	1c	1cc
2A/	2e\	2cc\
2A/	2e\	2cc\
=218	=218	=218
1A	1e	1cc
1A	1e	1cc
=219	=219	=219
2A/	2e\	2cc\
2A/	2e\	2cc\
1A	1c	1cc
=220	=220	=220
2D/	2d\	2b\
2F/	2c\	2a/
2G/	2B\	2g/
2F/	2c\	2a/
=221	=221	=221
2D/	2d\	2b\
1C	1e	1cc
4D/	4d\	4b\
4E/	4c\	4a/
=222	=222	=222
1G	1d	1b
1A	1c	1cc
=223	=223	=223
1r	1r	1r
1A	1e	1cc
=224	=224	=224
2F/	2f\	2cc\
2F/	2f\	2cc\
2F/	2f\	2cc\
2F/	2f\	2cc\
=225	=225	=225
1A	1e	1cc
2r	1d	1b
2D/	.	.
=226	=226	=226
2F/	2c\	2a/
2G/	2B\	2g/
2F/	2c\	2a/
2D/	[2d\	[2b\
=227	=227	=227
1G	2d\]	4b\]
.	.	4a/
.	2B\	1g
1D	1A	.
.	.	2f#i/
=228	=228	=228
0dl	0Gl	0gl
=229||	=229||	=229||
*>T	*>T	*>T
!!section: Tunc acceptabis
!!!OMD: Tunc acceptabis
!!LO:TX:Z=8:t=Choir 2
1c	1c	1cc
2A/	2e\	2cc\
2A/	2e\	2cc\
=230	=230	=230
1A	1e	1cc
1F	1f	1cc
=231	=231	=231
2A/	2e\	2cc\
2A/	2e\	2cc\
2A/	2e\	2cc\
2A/	2e\	2cc\
=232	=232	=232
1A	1c	1cc
1G	1d	1b
=233	=233	=233
2G/	2d\	2b\
2G/	2d\	2b\
1G	1d	1b
=234	=234	=234
2A/	2c\	2cc\
2A/	2c\	2cc\
2A/	2e\	2cc\
2A/	2e\	2cc\
=235	=235	=235
1A	1f	1cc
1G	1g	1b
=236	=236	=236
2d\	1f	1a
2A/	.	.
2c\	2.e\	2.g/
4B\	.	.
4A/	4f\	4a/
=237	=237	=237
2G/	2g\	2b\
2C/	2e\	1cc
1G	1d	.
.	.	2b\
=238	=238	=238
1C	1c	1cc
1r	1r	1r
=239	=239	=239
1c	1e	1cc
2A/	2e\	2cc\
2A/	2e\	2cc\
=240	=240	=240
1A	1e	1cc
2A/	2e\	2cc\
2A/	2e\	2cc\
=241	=241	=241
2A/	2e\	2cc\
2A/	2e\	2cc\
1A	1c	1cc
=242	=242	=242
2G/	2.d\	1b
2G/	.	.
.	4e\	.
2d\	2f\	2a/
2B\	[2g\	2b\
=243	=243	=243
1A	2g\]	1cc
.	2f\	.
1G	2.g\	1b
.	4f\	.
=244	=244	=244
0Gl	0dl	0bl
==	==	==
*-	*-	*-
!!!RDF**kern: l=long note in original notation
!!!RDF**kern: i=editorial accidental
!!!ENC:	Chris Gage 08-07-2014
!!!END:	2014/10/09/
!!!EED:	Jesse Rodin
!!!EEV:	2014/10/18/
!!!ONB:	Translated from MusicXML and edited on 2014/10/18/ by Craig Sapp
!!muse2ps: C^@{COM}^i2I150v85,85,150c200
